//
// TestNodeOSL
//
// This file is not used directly in the test, but is compiled into the OSO.
// This node has no purpose other than to ensure it is discovered.
//

shader TestNodeOSL
(
    float inputA = .0
)
{
    // Nothing here!
}
